X: 25190
T: Make 'n' Break Hornpipe
R: reel
M: 4/4
K: Cmajor
AB|ceec BddB|AGAB AGEC|FAAF EGGE|DCDE D2 AB|
ceec BddB|AGAB AGEC|FAAF EGGA|cedB c2:|
AB|c2 C2 E2 C2|G2 GAGE DC|FAAF EGGE|DCDE D2 AB|
c2 C2 E2 C2|G2 GAGE DC|FAAF EGGA|cedB c2:|

